img/menu/m-icons-cat2.svg

<svg width="24" height="24" viewBox="0 0 24 24" fill="none" xmlns="http://www.w3.org/2000/svg">
<path fill-rule="evenodd" clip-rule="evenodd" d="M12.5227 3C11.3499 3 10.3049 3.57638 9.62932 4.47479L4.31093 10.9317C3.49593 11.8863 3 13.1492 3 14.5343C3 17.4559 5.2071 19.8344 7.96082 19.9223L19.1604 19.994C19.6865 19.9974 20.1253 19.5924 20.1641 19.0677L20.8414 9.89525C20.927 8.73581 20.0095 7.74795 18.8469 7.74795L16.1191 7.74795C16.179 7.4702 16.2107 7.18112 16.2107 6.88421C16.2107 4.73886 14.5595 3 12.5227 3ZM11.5969 18.4895C12.1348 17.9646 12.5654 17.3196 12.8503 16.5949L12.8519 16.5908C12.8756 16.5305 12.8982 16.4697 12.9198 16.4083L15.6713 9.01165H19.4975C19.5049 9.01165 19.506 9.0223 19.4988 9.02378C19.4961 9.02433 19.4941 9.02662 19.4939 9.02937L18.9129 17.5574C18.8772 18.0821 18.4411 18.4895 17.9152 18.4895H11.5969ZM7.54048 9.17772L10.7705 5.25045L10.7775 5.25508C11.2069 4.74539 11.8261 4.41788 12.5227 4.41788C13.8141 4.41788 14.8645 5.52467 14.8645 6.88421C14.8645 7.24331 14.7873 7.58199 14.6565 7.88991L14.6595 7.89223L12.8972 12.597C12.1583 10.5768 10.2976 9.1437 8.11879 9.1437C7.92327 9.1437 7.7303 9.15525 7.54048 9.17772ZM4.3464 14.5343C4.3464 13.4863 4.73384 12.5318 5.36575 11.8212L5.37527 11.8105C6.06363 11.0421 7.03903 10.5618 8.11879 10.5618C10.1988 10.5618 11.8914 12.3438 11.8914 14.5343C11.8914 16.7245 10.1988 18.5069 8.11879 18.5069C6.039 18.5069 4.3464 16.7245 4.3464 14.5343Z" fill="#034899"/>
<path fill-rule="evenodd" clip-rule="evenodd" d="M7.96082 19.9223C5.2071 19.8344 3 17.4559 3 14.5343C3 13.1492 3.49593 11.8863 4.31093 10.9317L9.62932 4.47479C10.3049 3.57638 11.3499 3 12.5227 3C14.5595 3 16.2107 4.73886 16.2107 6.88421C16.2107 7.09307 16.195 7.29805 16.1649 7.49795C16.1521 7.58222 16.1369 7.66558 16.1191 7.74795L18.8469 7.74795C20.0095 7.74795 20.927 8.73581 20.8414 9.89525L20.1641 19.0677C20.1253 19.5924 19.6865 19.9974 19.1604 19.994L7.96082 19.9223ZM16.4175 7.49795C16.4459 7.29759 16.4607 7.09264 16.4607 6.88421C16.4607 4.61315 14.7096 2.75 12.5227 2.75C11.267 2.75 10.1519 3.36658 9.43288 4.32005L4.11935 10.771C3.2671 11.7702 2.75 13.0897 2.75 14.5343C2.75 17.5795 5.05318 20.0796 7.95284 20.1722L19.3925 20.2455C19.9186 20.2489 20.3574 19.8439 20.3962 19.3192L21.1106 9.64525C21.1962 8.48581 20.2786 7.49795 19.116 7.49795L16.4175 7.49795ZM13.083 16.6864C12.8587 17.257 12.5477 17.7808 12.1671 18.2395H17.6817C18.2076 18.2395 18.6436 17.8321 18.6794 17.3074L19.1547 10.3296C19.1941 9.75192 18.7361 9.26165 18.157 9.26165H15.8451L13.1549 16.4935C13.1325 16.5569 13.1091 16.6197 13.0847 16.6821L13.083 16.6864ZM12.9198 16.4083L15.6713 9.01165H19.4975C19.5049 9.01165 19.506 9.0223 19.4988 9.02378C19.4961 9.02433 19.4941 9.02662 19.4939 9.02937L18.9129 17.5574C18.8772 18.0821 18.4411 18.4895 17.9152 18.4895H11.5969C11.6794 18.4089 11.7595 18.3255 11.8368 18.2395C12.2635 17.7648 12.6092 17.2084 12.8503 16.5949L12.8519 16.5908C12.8756 16.5305 12.8982 16.4697 12.9198 16.4083ZM10.7775 5.25508L10.7705 5.25045L7.54048 9.17772C7.65512 9.16415 7.7709 9.15456 7.88771 9.1491C7.96431 9.14551 8.04135 9.1437 8.11879 9.1437C10.1722 9.1437 11.943 10.4166 12.7586 12.2542C12.8084 12.3664 12.8546 12.4807 12.8972 12.597L14.6595 7.89223L14.6565 7.88991C14.7873 7.58199 14.8645 7.24331 14.8645 6.88421C14.8645 5.52467 13.8141 4.41788 12.5227 4.41788C11.8261 4.41788 11.2069 4.74539 10.7775 5.25508ZM14.3606 7.97729L14.3509 7.96978L14.4264 7.79217C14.5451 7.51254 14.6145 7.20699 14.6145 6.88421C14.6145 5.65035 13.6639 4.66788 12.5227 4.66788C11.9078 4.66788 11.356 4.95641 10.9687 5.41616L10.8252 5.58647L10.8204 5.5833L8.09771 8.89374C8.10473 8.89372 8.11176 8.8937 8.11879 8.8937C10.1945 8.8937 11.9874 10.129 12.881 11.9273L14.3606 7.97729ZM5.55257 11.9873C4.96068 12.6529 4.5964 13.5485 4.5964 14.5343C4.5964 16.5987 6.1891 18.2569 8.11879 18.2569C10.0487 18.2569 11.6414 16.5987 11.6414 14.5343C11.6414 12.4696 10.0487 10.8118 8.11879 10.8118C7.11551 10.8118 6.20615 11.2577 5.56148 11.9773L5.55257 11.9873ZM5.36575 11.8212C4.73384 12.5318 4.3464 13.4863 4.3464 14.5343C4.3464 16.7245 6.039 18.5069 8.11879 18.5069C10.1988 18.5069 11.8914 16.7245 11.8914 14.5343C11.8914 12.3438 10.1988 10.5618 8.11879 10.5618C7.03903 10.5618 6.06363 11.0421 5.37527 11.8105L5.36575 11.8212Z" fill="#034899"/>
</svg>

<svg width="24" height="24" fill="none" xmlns="http://www.w3.org/2000/svg"><path fill-rule="evenodd" clip-rule="evenodd" d="M12.523 3c-1.173 0-2.218.576-2.894 1.475l-5.318 6.457A5.534 5.534 0 0 0 3 14.534c0 2.922 2.207 5.3 4.96 5.388l11.2.072a1 1 0 0 0 1.004-.926l.677-9.173a2 2 0 0 0-1.994-2.147h-2.728c.06-.278.092-.567.092-.864C16.21 4.74 14.56 3 12.523 3zm-.926 15.49a5.415 5.415 0 0 0 1.253-1.895l.002-.004c.024-.06.046-.121.068-.183l2.751-7.396h3.826c.008 0 .009.01.002.012a.006.006 0 0 0-.005.005l-.581 8.528a1 1 0 0 1-.998.933h-6.318zM7.54 9.178l3.23-3.928.008.005c.429-.51 1.048-.837 1.745-.837 1.291 0 2.341 1.107 2.341 2.466 0 .36-.077.698-.208 1.006l.003.002-1.762 4.705c-.739-2.02-2.6-3.453-4.778-3.453-.196 0-.389.011-.579.034zm-3.194 5.356c0-1.048.388-2.002 1.02-2.713l.01-.01c.688-.769 1.663-1.25 2.743-1.25 2.08 0 3.772 1.783 3.772 3.973S10.2 18.507 8.12 18.507s-3.773-1.783-3.773-3.973z" fill="#034899"/><path fill-rule="evenodd" clip-rule="evenodd" d="M7.96 19.922C5.208 19.834 3 17.456 3 14.534c0-1.385.496-2.648 1.31-3.602l5.32-6.457C10.304 3.576 11.35 3 12.522 3c2.037 0 3.688 1.739 3.688 3.884a4.12 4.12 0 0 1-.092.864h2.728a2 2 0 0 1 1.994 2.147l-.677 9.173a1 1 0 0 1-1.004.926l-11.2-.072zm8.457-12.424c.029-.2.044-.405.044-.614 0-2.27-1.751-4.134-3.938-4.134-1.256 0-2.371.617-3.09 1.57l-5.314 6.451a5.784 5.784 0 0 0-1.369 3.763c0 3.045 2.303 5.546 5.203 5.638l11.44.073a1 1 0 0 0 1.003-.926l.715-9.674a2 2 0 0 0-1.995-2.147h-2.698zm-3.334 9.188a5.695 5.695 0 0 1-.916 1.553h5.515a1 1 0 0 0 .997-.932l.476-6.977a1 1 0 0 0-.998-1.068h-2.312l-2.69 7.232a6.072 6.072 0 0 1-.07.188l-.002.004zm-.163-.278l2.751-7.396h3.826c.008 0 .009.01.002.012a.006.006 0 0 0-.005.005l-.581 8.528a1 1 0 0 1-.998.933h-6.318a5.432 5.432 0 0 0 1.253-1.895l.002-.004c.024-.06.046-.121.068-.183zM10.777 5.255l-.006-.005-3.23 3.928a4.9 4.9 0 0 1 .578-.034c2.053 0 3.824 1.273 4.64 3.11.05.112.096.227.138.343l1.762-4.705-.003-.002c.131-.308.208-.647.208-1.006 0-1.36-1.05-2.466-2.341-2.466-.697 0-1.316.327-1.745.837zm3.584 2.722l-.01-.007.075-.178c.12-.28.188-.585.188-.908 0-1.234-.95-2.216-2.091-2.216-.615 0-1.167.288-1.554.748l-.144.17-.005-.003-2.722 3.31h.02c2.076 0 3.87 1.236 4.763 3.034l1.48-3.95zm-8.808 4.01a3.824 3.824 0 0 0-.957 2.547c0 2.065 1.593 3.723 3.523 3.723 1.93 0 3.522-1.658 3.522-3.723 0-2.064-1.592-3.722-3.522-3.722-1.003 0-1.913.446-2.558 1.165l-.008.01zm-.187-.166a4.074 4.074 0 0 0-1.02 2.713c0 2.19 1.693 3.973 3.773 3.973s3.772-1.783 3.772-3.973-1.692-3.972-3.772-3.972c-1.08 0-2.055.48-2.744 1.248l-.01.011z" fill="#034899"/></svg>
